Sources/FrostedUI/Resources/Icons.xcassets/lightsOn24.imageset/lights-on-24.svg

<svg width="24" height="24" viewBox="0 0 24 24" fill="none" xmlns="http://www.w3.org/2000/svg" data-fui-icon="true">
  <path
    d="M14.4004 22.5C14.8144 22.5002 15.1504 22.8359 15.1504 23.25C15.1504 23.6641 14.8144 23.9998 14.4004 24H9.59961C9.18558 23.9998 8.84961 23.6641 8.84961 23.25C8.84961 22.8359 9.18558 22.5002 9.59961 22.5H14.4004ZM12 5C16.0763 5 19 8.09774 19 12C19 14.5993 17.4319 16.2213 16.3818 17.0146C15.9755 17.3216 15.75 17.7299 15.75 18.1006C15.7499 19.7018 14.4518 20.9999 12.8506 21H11.1494C9.54817 20.9999 8.25013 19.7018 8.25 18.1006C8.25 17.7299 8.02448 17.3216 7.61816 17.0146C6.56814 16.2213 5 14.5993 5 12C5 8.09774 7.92371 5 12 5ZM4.71973 18.2197C5.01262 17.9268 5.48738 17.9268 5.78027 18.2197C6.07317 18.5126 6.07317 18.9874 5.78027 19.2803L4.65527 20.4053C4.36238 20.6982 3.88762 20.6982 3.59473 20.4053C3.30183 20.1124 3.30183 19.6376 3.59473 19.3447L4.71973 18.2197ZM18.2197 18.2197C18.5126 17.9268 18.9874 17.9268 19.2803 18.2197L20.4053 19.3447C20.6982 19.6376 20.6982 20.1124 20.4053 20.4053C20.1124 20.6982 19.6376 20.6982 19.3447 20.4053L18.2197 19.2803C17.9268 18.9874 17.9268 18.5126 18.2197 18.2197ZM12 6.5C8.77584 6.5 6.5 8.90226 6.5 12C6.5 13.9283 7.65158 15.1604 8.52246 15.8184C9.18646 16.3201 9.75 17.1298 9.75 18.1006C9.75013 18.8734 10.3766 19.4999 11.1494 19.5H12.8506C13.6234 19.4999 14.2499 18.8734 14.25 18.1006C14.25 17.1298 14.8135 16.3201 15.4775 15.8184C16.3484 15.1604 17.5 13.9283 17.5 12C17.5 8.90226 15.2242 6.5 12 6.5ZM2.25 11.25C2.66421 11.25 3 11.5858 3 12C2.99997 12.4142 2.66419 12.75 2.25 12.75H0.75C0.335807 12.75 3.29839e-05 12.4142 0 12C0 11.5858 0.335786 11.25 0.75 11.25H2.25ZM23.25 11.25C23.6642 11.25 24 11.5858 24 12C24 12.4142 23.6642 12.75 23.25 12.75H21.75C21.3358 12.75 21 12.4142 21 12C21 11.5858 21.3358 11.25 21.75 11.25H23.25ZM3.21973 3.21973C3.51262 2.92683 3.98738 2.92683 4.28027 3.21973L5.40527 4.34473C5.69817 4.63762 5.69817 5.11238 5.40527 5.40527C5.11238 5.69817 4.63762 5.69817 4.34473 5.40527L3.21973 4.28027C2.92683 3.98738 2.92683 3.51262 3.21973 3.21973ZM19.7197 3.21973C20.0126 2.92683 20.4874 2.92683 20.7803 3.21973C21.0732 3.51262 21.0732 3.98738 20.7803 4.28027L19.6553 5.40527C19.3624 5.69817 18.8876 5.69817 18.5947 5.40527C18.3018 5.11238 18.3018 4.63762 18.5947 4.34473L19.7197 3.21973ZM12 0C12.4142 0 12.75 0.335786 12.75 0.75V2.25C12.75 2.66421 12.4142 3 12 3C11.5858 3 11.25 2.66421 11.25 2.25V0.75C11.25 0.335786 11.5858 0 12 0Z"
    fill="currentColor"
  />
</svg>

<svg xmlns="http://www.w3.org/2000/svg" width="24" height="24" fill="none" data-fui-icon="true" viewBox="0 0 24 24"><path fill="currentColor" d="M14.4 22.5a.75.75 0 0 1 0 1.5H9.6a.75.75 0 0 1 0-1.5zM12 5c4.076 0 7 3.098 7 7 0 2.6-1.568 4.221-2.618 5.015-.407.307-.632.715-.632 1.086A2.9 2.9 0 0 1 12.85 21h-1.7a2.9 2.9 0 0 1-2.9-2.9c0-.37-.226-.778-.632-1.085C6.568 16.22 5 14.599 5 12c0-3.902 2.924-7 7-7M4.72 18.22a.75.75 0 1 1 1.06 1.06l-1.125 1.125a.75.75 0 1 1-1.06-1.06zm13.5 0a.75.75 0 0 1 1.06 0l1.125 1.125a.75.75 0 1 1-1.06 1.06L18.22 19.28a.75.75 0 0 1 0-1.06M12 6.5c-3.224 0-5.5 2.402-5.5 5.5 0 1.928 1.152 3.16 2.022 3.818.664.502 1.228 1.312 1.228 2.283a1.4 1.4 0 0 0 1.4 1.399h1.7a1.4 1.4 0 0 0 1.4-1.4c0-.97.563-1.78 1.227-2.282.871-.658 2.023-1.89 2.023-3.818 0-3.098-2.276-5.5-5.5-5.5m-9.75 4.75a.75.75 0 0 1 0 1.5H.75a.75.75 0 0 1 0-1.5zm21 0a.75.75 0 0 1 0 1.5h-1.5a.75.75 0 0 1 0-1.5zM3.22 3.22a.75.75 0 0 1 1.06 0l1.125 1.125a.75.75 0 1 1-1.06 1.06L3.22 4.28a.75.75 0 0 1 0-1.06m16.5 0a.75.75 0 1 1 1.06 1.06l-1.125 1.125a.75.75 0 1 1-1.06-1.06zM12 0a.75.75 0 0 1 .75.75v1.5a.75.75 0 0 1-1.5 0V.75A.75.75 0 0 1 12 0"/></svg>
